!!!!SEGMENT: Snf0324-Salva_nos_Domine.krn
!!!id: Snf0324
!!!AGN: Motet
!!!voices: 5
!!!COM: Ludwig Senfl
!!!OTL: Salva nos, Domine
**kern	**text	**kern	**text	**kern	**text	**kern	**text	**kern	**text
*part5	*part5	*part4	*part4	*part3	*part3	*part2	*part2	*part1	*part1
*staff5	*staff5	*staff4	*staff4	*staff3	*staff3	*staff2	*staff2	*staff1	*staff1
*I"Bassus	*	*I"Tenor II	*	*I"Tenor I	*	*I"Altus	*	*I"Superius	*
*I'B	*	*I'T. II	*	*I'T. I	*	*I'A	*	*I'S	*
*clefF4	*	*clefGv2	*	*clefGv2	*	*clefGv2	*	*clefG2	*
*k[]	*	*k[]	*	*k[]	*	*k[]	*	*k[]	*
*C:	*	*C:	*	*C:	*	*C:	*	*C:	*
*M2/1	*	*M2/1	*	*M2/1	*	*M2/1	*	*M2/1	*
*met(C|)	*	*met(C|)	*	*met(C|)	*	*met(C|)	*	*met(C|)	*
!!section: Prima pars: Salva nos, Domine
!!!OMD: Prima pars: Salva nos, Domine
=1	=1	=1	=1	=1	=1	=1	=1	=1	=1
!	!	!	!	!LO:TX:a:t=Canon&colon; tenor I/tenor II at the fifth	!	!	!	!	!
0r	.	0r	.	0r	.	0G	Sal-	0r	.
=2	=2	=2	=2	=2	=2	=2	=2	=2	=2
0r	.	0r	.	0r	.	0A	-va	0r	.
=3	=3	=3	=3	=3	=3	=3	=3	=3	=3
0r	.	0r	.	0r	.	0c	.	0g	Sal-
=4	=4	=4	=4	=4	=4	=4	=4	=4	=4
0r	.	0r	.	0r	.	1c	nos,	0a	-va
.	.	.	.	.	.	2r	.	.	.
.	.	.	.	.	.	[2A	Do-	.	.
=5	=5	=5	=5	=5	=5	=5	=5	=5	=5
0r	.	0r	.	0r	.	4A]	.	0cc	.
.	.	.	.	.	.	4B	.	.	.
.	.	.	.	.	.	4c	.	.	.
.	.	.	.	.	.	4d	.	.	.
.	.	.	.	.	.	2e	.	.	.
.	.	.	.	.	.	[2f	.	.	.
=6	=6	=6	=6	=6	=6	=6	=6	=6	=6
0r	.	0r	.	0r	.	2f]	.	0cc	nos,
.	.	.	.	.	.	4e	.	.	.
.	.	.	.	.	.	4d	.	.	.
.	.	.	.	.	.	2e	.	.	.
.	.	.	.	.	.	4f	.	.	.
.	.	.	.	.	.	4e	.	.	.
=7	=7	=7	=7	=7	=7	=7	=7	=7	=7
0GG	Sal-	0r	.	0r	.	4d	.	1r	.
.	.	.	.	.	.	4c	.	.	.
.	.	.	.	.	.	2e	.	.	.
.	.	.	.	.	.	1d	.	1b	Do-
=8	=8	=8	=8	=8	=8	=8	=8	=8	=8
0AA	-va	0r	.	0r	.	2c	.	1cc	.
.	.	.	.	.	.	2A	-mi-	.	.
.	.	.	.	.	.	2.c	-ne,	2a	.
.	.	.	.	.	.	.	.	[2cc	.
.	.	.	.	.	.	4d	.	.	.
=9	=9	=9	=9	=9	=9	=9	=9	=9	=9
0C	.	0r	.	0r	.	1e	.	2cc]	.
.	.	.	.	.	.	.	.	4b	.
.	.	.	.	.	.	.	.	4a	.
.	.	.	.	.	.	2r	.	2g	.
.	.	.	.	.	.	2c	sal-	[2a	-mi-
=10	=10	=10	=10	=10	=10	=10	=10	=10	=10
0C	nos,	0r	.	0r	.	2.e	.	2a]	.
.	.	.	.	.	.	.	.	4g	.
.	.	.	.	.	.	4f	.	4f	.
.	.	.	.	.	.	4g	.	1e	.
.	.	.	.	.	.	4a	.	.	.
.	.	.	.	.	.	[2g	.	.	.
=11	=11	=11	=11	=11	=11	=11	=11	=11	=11
0BB	Do-	0r	.	0d	Sal-	2g]	.	1d	-ne,
.	.	.	.	.	.	4f	.	.	.
.	.	.	.	.	.	4e	.	.	.
.	.	.	.	.	.	2d	.	2r	.
.	.	.	.	.	.	[2G	-va	2dd	sal-
=12	=12	=12	=12	=12	=12	=12	=12	=12	=12
1.C	.	0r	.	0e	-va	2G]	.	2cc	.
.	.	.	.	.	.	1c	.	1ee	.
2D	.	.	.	.	.	4B	.	4dd	.
.	.	.	.	.	.	4A	.	4cc	.
=13	=13	=13	=13	=13	=13	=13	=13	=13	=13
2E	.	0r	.	0g	.	2G	.	2b	.
2C	.	.	.	.	.	2c	nos,	1cc	.
1G	.	.	.	.	.	1d	.	.	.
.	.	.	.	.	.	.	.	2b	-va
=14	=14	=14	=14	=14	=14	=14	=14	=14	=14
1C	-mi-	0G	Sal-	0g	nos,	1c	.	1cc	nos,
1E	.	.	.	.	.	2B	Do-	2r	.
.	.	.	.	.	.	2e	.	2cc	Do-
=15	=15	=15	=15	=15	=15	=15	=15	=15	=15
0D	.	0A	-va	0f	Do-	2f	.	1dd	.
.	.	.	.	.	.	1a	.	.	.
.	.	.	.	.	.	.	.	1dd	-mi-
.	.	.	.	.	.	4g	.	.	.
.	.	.	.	.	.	4f	.	.	.
=16	=16	=16	=16	=16	=16	=16	=16	=16	=16
1.C	.	0c	.	0g	.	1e	.	1.ee	-ne,
.	.	.	.	.	.	2c	-mi-	.	.
2BB	.	.	.	.	.	2d	.	2dd	.
=17	=17	=17	=17	=17	=17	=17	=17	=17	=17
1AA	-ne,	0c	nos,	0a	.	1e	-ne,	2.cc	.
.	.	.	.	.	.	.	.	4b	.
1FF	.	.	.	.	.	2.f	.	1a	.
.	.	.	.	.	.	4e	.	.	.
=18	=18	=18	=18	=18	=18	=18	=18	=18	=18
0GG	.	0B	Do-	1g	.	4d	.	1b	.
.	.	.	.	.	.	4c	.	.	.
.	.	.	.	.	.	1d	.	.	.
.	.	.	.	[1g	-mi-	.	.	2r	.
.	.	.	.	.	.	4c	.	2dd	sal-
.	.	.	.	.	.	4B	.	.	.
=19	=19	=19	=19	=19	=19	=19	=19	=19	=19
0AA	.	0c	.	2g]	.	1A	.	2cc	.
.	.	.	.	4f	.	.	.	2.a	-va
.	.	.	.	4e	.	.	.	.	.
.	.	.	.	1f	.	1r	.	.	.
.	.	.	.	.	.	.	.	4g	.
.	.	.	.	.	.	.	.	[2cc	.
=20	=20	=20	=20	=20	=20	=20	=20	=20	=20
0GG	.	0d	.	0g	.	1r	.	2cc]	.
.	.	.	.	.	.	.	.	4b	.
.	.	.	.	.	.	.	.	4a	.
.	.	.	.	.	.	2r	.	1b	nos,
.	.	.	.	.	.	2d	sal-	.	.
=21	=21	=21	=21	=21	=21	=21	=21	=21	=21
1r	.	1c	.	0g	-ne,	2e	.	2.cc	Do-
.	.	.	.	.	.	2.c	-va	.	.
.	.	.	.	.	.	.	.	4dd	.
1C	vi-	[1c	-mi-	.	.	.	.	1ee	-mi-
.	.	.	.	.	.	4d	.	.	.
.	.	.	.	.	.	2e	.	.	.
=22	=22	=22	=22	=22	=22	=22	=22	=22	=22
0D	-gi-	2c]	.	0f	.	2d	nos,	1a	-ne,
.	.	4B	.	.	.	2.D	Do-	.	.
.	.	4A	.	.	.	.	.	.	.
.	.	1B	.	.	.	.	.	2r	.
.	.	.	.	.	.	4E	.	.	.
.	.	.	.	.	.	4F	.	2dd	vi-
.	.	.	.	.	.	4D	.	.	.
=23	=23	=23	=23	=23	=23	=23	=23	=23	=23
2.AA	-lan-	0c	.	1r	.	1A	.	2ee	.
.	.	.	.	.	.	.	.	2.cc	.
4BB	.	.	.	.	.	.	.	.	.
1C	.	.	.	1e	vi-	1G	.	.	.
.	.	.	.	.	.	.	.	4b	.
.	.	.	.	.	.	.	.	2g	.
=24	=24	=24	=24	=24	=24	=24	=24	=24	=24
1FF	-tes,	0c	-ne,	1f	-gi-	1F	-mi-	1a	-gi-
1C	.	.	.	1e	-lan-	[1G	-ne,	2g	-lan-
.	.	.	.	.	.	.	.	2cc	.
=25	=25	=25	=25	=25	=25	=25	=25	=25	=25
0GG	.	0B	.	0d	-tes,	1G]	.	1dd	.
.	.	.	.	.	.	2r	.	1b	.
.	.	.	.	.	.	2G	sal-	.	.
=26	=26	=26	=26	=26	=26	=26	=26	=26	=26
1.D	cu-	1r	.	0r	.	2A	.	2.a	.
.	.	.	.	.	.	2.F	-va	.	.
.	.	.	.	.	.	.	.	4g	.
.	.	1A	vi-	.	.	.	.	2.f	.
.	.	.	.	.	.	4G	.	.	.
2C	.	.	.	.	.	2A	.	.	.
.	.	.	.	.	.	.	.	4e	.
=27	=27	=27	=27	=27	=27	=27	=27	=27	=27
2BB	-sto-	1B	-gi-	1d	cu-	2D	nos,	2d	.
2GG	.	.	.	.	.	1.d	Do-	2g	.
1D	.	1A	-lan-	1f	-sto-	.	.	1a	-tes,
=28	=28	=28	=28	=28	=28	=28	=28	=28	=28
2.E	-di	0G	-tes,	0g	-di	2B	-mi-	1r	.
.	.	.	.	.	.	1e	-ne,	.	.
4D	.	.	.	.	.	.	.	.	.
2C	.	.	.	.	.	.	.	2r	.
2BB	.	.	.	.	.	2d	vi-	2b	cu-
=29	=29	=29	=29	=29	=29	=29	=29	=29	=29
1AA	nos	0r	.	0a	nos	1e	-gi-	1.cc	-sto-
1FF	.	.	.	.	.	1f	.	.	.
.	.	.	.	.	.	.	.	2dd	-di
=30	=30	=30	=30	=30	=30	=30	=30	=30	=30
1C	.	1G	cu-	0g	dor-	2e	-lan-	1ee	nos
.	.	.	.	.	.	2c	.	.	.
2r	.	1B	-sto-	.	.	1d	-tes,	1dd	dor-
2GG	dor-	.	.	.	.	.	.	.	.
=31	=31	=31	=31	=31	=31	=31	=31	=31	=31
2AA	-mi-	0c	-di	1e	-mi-	1r	.	2cc	-mi-
1C	-en-	.	.	.	.	.	.	1ee	-en-
.	.	.	.	1g	-en-	[1G	cu-	.	.
4BB	.	.	.	.	.	.	.	4dd	.
4AA	.	.	.	.	.	.	.	4cc	.
=32	=32	=32	=32	=32	=32	=32	=32	=32	=32
1GG	-tes,	0d	nos	0g	-tes,	0G]	.	2b	.
.	.	.	.	.	.	.	.	1cc	.
2r	.	.	.	.	.	.	.	.	.
2G	ut	.	.	.	.	.	.	2b	.
=33	=33	=33	=33	=33	=33	=33	=33	=33	=33
2.A	vi-	0c	dor-	1r	.	2c	-sto-	2cc	-tes,
.	.	.	.	.	.	2A	-di	2.c	ut
4G	.	.	.	.	.	.	.	.	.
2E	.	.	.	1g	ut	1e	nos	.	.
.	.	.	.	.	.	.	.	4d	.
2C	-gi-	.	.	.	.	.	.	2e	.
=34	=34	=34	=34	=34	=34	=34	=34	=34	=34
2D	-le-	1A	-mi-	1f	vi-	2d	dor-	2f	vi-
1F	.	.	.	.	.	2.c	-mi-	2.a	-gi-
.	.	1c	-en-	1g	-gi-	.	.	.	.
.	.	.	.	.	.	4d	.	4g	.
2E	.	.	.	.	.	2e	.	[2g	.
=35	=35	=35	=35	=35	=35	=35	=35	=35	=35
1F	-mus	0c	-tes,	1a	-le-	1A	-en-	2g]	.
.	.	.	.	.	.	.	.	2f	-le-
[1C	cum	.	.	1g	-mus	[1e	-tes,	2g	-mus
.	.	.	.	.	.	.	.	[2cc	.
=36	=36	=36	=36	=36	=36	=36	=36	=36	=36
0C]	.	1r	.	2e	cum	1e]	.	2cc]	.
.	.	.	.	2.g	Chri-	.	.	4b	.
.	.	.	.	.	.	.	.	4a	.
.	.	1c	ut	.	.	2r	.	1g	.
.	.	.	.	4f	.	.	.	.	.
.	.	.	.	[2e	.	2E	ut	.	.
=37	=37	=37	=37	=37	=37	=37	=37	=37	=37
1D	Chri-	1B	vi-	2e]	.	2F	vi-	2r	.
.	.	.	.	2d	.	2D	-gi-	2dd	cum
1AA	-sto	1c	-gi-	1e	-sto	2A	-le-	2cc	.
.	.	.	.	.	.	2E	.	2ee	.
=38	=38	=38	=38	=38	=38	=38	=38	=38	=38
2r	.	1d	-le-	1r	.	2F	.	1dd	.
2BB	et	.	.	.	.	2G	.	.	.
[1C	re-	1c	-mus	2r	.	[1E	-mus	1g	Chri-
.	.	.	.	2e	et	.	.	.	.
=39	=39	=39	=39	=39	=39	=39	=39	=39	=39
2C]	.	2A	cum	2e	re-	1E]	.	1a	.
2AA	-qui-	2.c	Chri-	2e	-qui-	.	.	.	.
2.C	-e-	.	.	1e	-e-	2r	.	1g	-sto
.	.	4B	.	.	.	.	.	.	.
.	.	[2A	.	.	.	2E	cum	.	.
4D	.	.	.	.	.	.	.	.	.
=40	=40	=40	=40	=40	=40	=40	=40	=40	=40
1BB	.	2A]	.	1d	-sca-	2F	Chri-	2r	.
.	.	2G	.	.	.	2D	.	2b	et
1AA	.	1A	-sto	1c	.	2E	.	2cc	re-
.	.	.	.	.	.	2F	.	2a	-qui-
=41	=41	=41	=41	=41	=41	=41	=41	=41	=41
2BB	.	1r	.	0d	-mus	1D	-sto	2d	-e-
2GG	.	.	.	.	.	.	.	1g	.
1D	-sca-	2r	.	.	.	2r	.	.	.
.	.	2A	et	.	.	2d	et	2f	.
=42	=42	=42	=42	=42	=42	=42	=42	=42	=42
1AA	-mus	2A	re-	0e	.	2.c	re-	2e	.
.	.	2A	-qui-	.	.	.	.	1ee	.
.	.	.	.	.	.	4B	.	.	.
2r	.	1A	-e-	.	.	4c	.	.	.
.	.	.	.	.	.	4d	.	.	.
2AA	in	.	.	.	.	2e	.	2cc	.
=43	=43	=43	=43	=43	=43	=43	=43	=43	=43
2BB	pa-	1G	-sca-	0r	.	2B	.	2dd	.
2GG	.	.	.	.	.	2.d	.	2b	.
1D	.	1F	.	.	.	.	.	1a	-sca-
.	.	.	.	.	.	4c	.	.	.
.	.	.	.	.	.	2A	.	.	.
=44	=44	=44	=44	=44	=44	=44	=44	=44	=44
1GG	.	0G	-mus	0d	in	2.B	-qui-	2g	-mus
.	.	.	.	.	.	.	.	1dd	in
.	.	.	.	.	.	4c	.	.	.
1BB	.	.	.	.	.	2d	.	.	.
.	.	.	.	.	.	[2G	-e-	2b	.
=45	=45	=45	=45	=45	=45	=45	=45	=45	=45
0AA	.	0A	.	0c	.	2G]	.	4cc	pa-
.	.	.	.	.	.	.	.	4b	.
.	.	.	.	.	.	4F	.	4a	.
.	.	.	.	.	.	4E	.	4g	.
.	.	.	.	.	.	1F	.	1a	.
=46	=46	=46	=46	=46	=46	=46	=46	=46	=46
0E	.	0r	.	0B	pa-	1G	-sca-	1.b	.
.	.	.	.	.	.	1E	.	.	.
.	.	.	.	.	.	.	.	4a	.
.	.	.	.	.	.	.	.	4g	.
=47	=47	=47	=47	=47	=47	=47	=47	=47	=47
0E	-ce,	0G	in	0B	-ce.	1e	-mus	0g	-ce,
.	.	.	.	.	.	2r	.	.	.
.	.	.	.	.	.	2e	in	.	.
=48	=48	=48	=48	=48	=48	=48	=48	=48	=48
1r	.	0F	.	0r	.	4f	pa-	2r	.
.	.	.	.	.	.	4e	.	.	.
.	.	.	.	.	.	4d	.	1a	in
.	.	.	.	.	.	4c	.	.	.
1D	in	.	.	.	.	1d	.	.	.
.	.	.	.	.	.	.	.	2f	.
=49	=49	=49	=49	=49	=49	=49	=49	=49	=49
0G	.	0E	pa-	[0Bl	-ce.	1e	-ce,	1.g	pa-
.	.	.	.	.	.	2r	.	.	.
.	.	.	.	.	.	[2e	pa-	4f	.
.	.	.	.	.	.	.	.	4e	.
=50	=50	=50	=50	=50	=50	=50	=50	=50	=50
1.G	pa-	0E	-ce.	0B_	.	2e]	.	[0el	-ce.
.	.	.	.	.	.	4d	.	.	.
.	.	.	.	.	.	4c	.	.	.
.	.	.	.	.	.	2.B	.	.	.
4F	.	.	.	.	.	.	.	.	.
4E	.	.	.	.	.	4G	.	.	.
=51	=51	=51	=51	=51	=51	=51	=51	=51	=51
1.E	.	0r	.	0B_	.	[0Gl	-ce.	0e_	.
2EE	.	.	.	.	.	.	.	.	.
=52	=52	=52	=52	=52	=52	=52	=52	=52	=52
00EEl	-ce.	00El	-ce.	00B]	.	00G]	.	00e]	.
==	==	==	==	==	==	==	==	==	==
*-	*-	*-	*-	*-	*-	*-	*-	*-	*-
!!!system-decoration: [*]
!!!RDF**kern: i = editorial accidental
!!!RDF**kern: l = terminal long
!!!!PTL: <i> New Senfl Edition: Motets for Five Voices</i>
!!!PPR: Hollitzer Verlag
!!!PC#: Denkmäler der Tonkunst in Österreich 163.3
!!!PDT: 2022
!!!PED: Scott Lee Edwards, Stefan Gasch, and Sonja Tröster
!!!YEC: Copyright 2022 Denkmäler der Tonkunst in Österreich
!!!YEM: CC-BY-NC 4.0 (https://creativecommons.org/licenses/by-nc/4.0/legalcode)
!!!EED: Benjamin Ory
!!!EEV: 2024/9/16
!!!verovio: header encoded
!!!header-left: @{PTL}\n@{PED}, eds.\n@{PC#} (@{PDT})&nbsp;\n
!!!header-right:
!!!header-center: